assets/icons/qvision/find_replace.svg

<svg xmlns="http://www.w3.org/2000/svg" height="24" viewBox="0 0 24 24" width="24"><path d="M0 0h24v24H0z" fill="none"/><path d="M11 6c1.38 0 2.63.56 3.54 1.46L12 10h6V4l-2.05 2.05C14.68 4.78 12.93 4 11 4c-3.53 0-6.43 2.61-6.92 6H6.1c.46-2.28 2.48-4 4.9-4zm5.64 9.14c.66-.9 1.12-1.97 1.28-3.14H15.9c-.46 2.28-2.48 4-4.9 4-1.38 0-2.63-.56-3.54-1.46L10 12H4v6l2.05-2.05C7.32 17.22 9.07 18 11 18c1.55 0 2.98-.51 4.14-1.36L20 21.49 21.49 20l-4.85-4.86z"/></svg>

<svg width="24" height="24" viewBox="0 0 24 24" fill="none" xmlns="http://www.w3.org/2000/svg">
<g clip-path="url(#clip0_147_4198)">
<path d="M11 6C12.38 6 13.63 6.56 14.54 7.46L12 10H18V4L15.95 6.05C14.68 4.78 12.93 4 11 4C7.47 4 4.57 6.61 4.08 10H6.1C6.56 7.72 8.58 6 11 6ZM16.64 15.14C17.3 14.24 17.76 13.17 17.92 12H15.9C15.44 14.28 13.42 16 11 16C9.62 16 8.37 15.44 7.46 14.54L10 12H4V18L6.05 15.95C7.32 17.22 9.07 18 11 18C12.55 18 13.98 17.49 15.14 16.64L20 21.49L21.49 20L16.64 15.14Z" fill="#323232"/>
</g>
<defs>
<clipPath id="clip0_147_4198">
<rect width="24" height="24" fill="white"/>
</clipPath>
</defs>
</svg>
